X: 1
T:CCPB's 20th Anniversary March  "CCPB Sep-1995"
M:C
L:1/8
Q:80
C:P/M Tue Johannesen
S:March
K:HP
[| e|
{g}A2{GdGe}A{d}c{gef}e2-ef|
{gf}g3/2f/2{g}ed{gef}e2{g}dB|
{g}G3/2{d}G/2{e}G3/2{d}B/2{Gdc}de{g}f/2e/2d|  !
{g}d2-dG{g}B{d}G{g}Bd|
{gef}e2-eA{gfg}f2-fd|
{gf}g3/2f/2{g}ed{g}cd{g}eA|  !
{ag}a2-ag{a}fe{Gdc}d2|
{g}A2{Gdc}d2-d3/2e/2{Gdc}d2|] [|
{ag}a2Aa{fg}f2{g}ed|  !
{g}e3/2f/2{g}dB{G}A2-A{gAGAG}A|
{ag}a2{fg}fd{gf}gf-fd|
{gef}e2-eA{g}c{d}A{g}ce|  !
{ag}a2Aa{fg}f2{g}ed|
{g}e3/2f/2{g}dB{G}A2{Gdc}de|
{gfg}f2{g}f/2a3/2{ef}e2{G}e3/2f/2|  !
{Gdc}d2{g}d3/2e/2{Gdc}d2-d2|]
